!! 00000] TT[WS
!!!OTL: Buhe nuyide batou weng
!!!ARE: Asia, China, Shanxi Lishi
!! Ethnic Group: Han
!! WII, 127 (2)
!!!SCT: J0596
!!!YEM: Copyright 1995, estate of Helmut Schaffrath.
**kern
*ICvox
*Ivox
*M2/4
*k[]
*C:
{8g
16g
16g
8e
8g
=1
8a
8e
4g
=2
2g}
=3
{8e
8g
8a
16cc
16cc
=4
8g
8e
8d
8c
=5
2d}
=6
{8d
8e
8g
8g
=7
8e
8g
8g
8e
=8
16d
16e
16d
16c
8c
8G
=9
2A}
=10
{16d
16e
16d
16c
8d
8e
=11
2d
=12
16c
16c
16c
16A
8E
8G
=13
2G}
==
!!!AGN: Xiaodiao. Qingge, Aisu
!!!ONB: ESAC (Essen Associative Code) Database: CHINA
!!!AMT: simple duple
!!!AIN: vox
!!!EED: Helmut Schaffrath
!!!EEV: 1.0
*-
